src/status/symbolic/network-cellular-3g-symbolic.svg

<svg version="1.1" viewBox="0 0 16 16" xmlns="http://www.w3.org/2000/svg">
 <path d="m0 2.3578v11.356c0 2.2851 2 2.2851 2 2.2851h12c2 0 2-2.2851 2-2.2851v-11.43s0-2.2851-2-2.2851h-12s-2 0.0013299-2 2.3585zm2-0.071994h4c0.66667 0.018665 1.1667 0.95859 0.87467 1.6439l-1.3733 3.1771c0.35333 0.13332 0.748 0.22398 0.968 0.49996 0.332 0.41863 0.53067 0.92659 0.53067 1.5359v2.2865c0 1.2706-0.90667 2.2851-2 2.2851h-3v-2.2851h3v-2.2865h-1c-0.66667-0.018665-1.1667-0.95725-0.87467-1.6425l1.2493-2.9278h-2.3733zm10 0c2 0 2 2.2865 2 2.2865v1.1426h-2v-1.1426h-2v6.8568h2v-2.2865h-1v-2.2491l2-0.035997 1 0.035997v4.4996s0 2.3198-2 2.3198h-2s-2 0-2-2.2838v-6.8568c0-2.2878 2-2.2878 2-2.2878z" color="#363636" fill="#363636" stroke-width="1.3333"/>
</svg>

<svg xmlns="http://www.w3.org/2000/svg" viewBox="0 0 16 16">
    <path fill="#050505" fill-opacity=".7" d="M0 2.358v11.356c0 2.285 2 2.285 2 2.285h12c2 0 2-2.285 2-2.285V2.284s0-2.285-2-2.285H2S0 0 0 2.357zm2-.072h4c.667.018 1.167.958.875 1.644L5.5 7.107c.354.133.748.224.968.5.332.418.531.926.531 1.536v2.286c0 1.27-.907 2.285-2 2.285H2V11.43h3V9.143H4c-.667-.019-1.167-.958-.875-1.643l1.25-2.928H2zm10 0c2 0 2 2.286 2 2.286v1.143h-2V4.572h-2v6.857h2V9.143h-1v-2.25l2-.035 1 .036v4.5s0 2.319-2 2.319h-2s-2 0-2-2.284V4.572c0-2.287 2-2.287 2-2.287z" color="#050505"/>
</svg>
